polaris-icons/icons/PageHeartIcon.svg

<svg xmlns="http://www.w3.org/2000/svg" viewBox="0 0 20 20"><path fill-rule="evenodd" d="M5.5 5.25C5.5 4.55964 6.05964 4 6.75 4H9V7.75C9 8.7165 9.7835 9.5 10.75 9.5H14.5V10C14.5 10.4142 14.8358 10.75 15.25 10.75C15.6642 10.75 16 10.4142 16 10V8.75C16 8.55109 15.921 8.36032 15.7803 8.21967L10.2803 2.71967C10.1397 2.57902 9.94891 2.5 9.75 2.5H6.75C5.23122 2.5 4 3.73122 4 5.25V14.75C4 16.2688 5.23122 17.5 6.75 17.5H8C8.41421 17.5 8.75 17.1642 8.75 16.75C8.75 16.3358 8.41421 16 8 16H6.75C6.05964 16 5.5 15.4404 5.5 14.75V5.25ZM13.4393 8L10.5 5.06066V7.75C10.5 7.88807 10.6119 8 10.75 8H13.4393Z"/>
<path fill-rule="evenodd" d="M13.25 12.0739C12.3718 11.2868 11.0133 11.3093 10.1626 12.1416C9.27913 13.0059 9.27913 14.4143 10.1626 15.2787L12.3758 17.444C12.8617 17.9193 13.6383 17.9193 14.1242 17.444L16.3374 15.2787C17.2209 14.4143 17.2209 13.0059 16.3374 12.1416C15.4867 11.3093 14.1282 11.2868 13.25 12.0739ZM11.2116 13.2138C11.5029 12.9287 11.9819 12.9287 12.2732 13.2138L12.7255 13.6562C13.017 13.9414 13.483 13.9414 13.7745 13.6562L14.2268 13.2138C14.5181 12.9287 14.9971 12.9287 15.2884 13.2138C15.5705 13.4898 15.5705 13.9304 15.2884 14.2065L13.25 16.2008L11.2116 14.2065C10.9295 13.9304 10.9295 13.4898 11.2116 13.2138Z"/>
</svg>

<svg xmlns="http://www.w3.org/2000/svg" viewBox="0 0 20 20"><path fill-rule="evenodd" d="M5.5 5.25c0-.69.56-1.25 1.25-1.25h2.25v3.75c0 .966.784 1.75 1.75 1.75h3.75v.5c0 .414.336.75.75.75s.75-.336.75-.75v-1.25c0-.199-.079-.39-.22-.53l-5.5-5.5c-.14-.141-.331-.22-.53-.22h-3c-1.519 0-2.75 1.231-2.75 2.75v9.5c0 1.519 1.231 2.75 2.75 2.75h1.25c.414 0 .75-.336.75-.75s-.336-.75-.75-.75h-1.25c-.69 0-1.25-.56-1.25-1.25v-9.5Zm7.94 2.75-2.94-2.94v2.69c0 .138.112.25.25.25h2.69Z"/><path fill-rule="evenodd" d="M13.25 12.074c-.878-.787-2.237-.765-3.087.068-.884.864-.884 2.272 0 3.137l2.213 2.165c.486.475 1.262.475 1.748 0l2.213-2.165c.884-.865.884-2.273 0-3.137-.85-.833-2.209-.855-3.087-.068Zm-2.038 1.14c.29-.285.77-.285 1.061 0l.453.442c.291.285.757.285 1.048 0l.453-.442c.291-.285.77-.285 1.061 0 .282.276.282.716 0 .992l-2.038 1.995-2.038-1.995c-.282-.276-.282-.716 0-.992Z"/></svg>
